X: 34
T:Captain Campbell
M:4/4
L:1/8
R:Strathspey
K:Am
E|"Am"E<AA>B c>AB>G|"G"D<GG>A B>d c/B/A/G/|"Am"E<AA>B c>B c<e|"G"dB
"A
m"A3:|!
B|"Am"A<aa>g e>d c<e|"G"d>eg>e d/c/B/A/ G>B|"Am"A<aa>g e>d c<e|"G"dB
"Am"A3 B|!
"Am"A<aa>g e>d c<e|"G"d>eg>e d/c/B/A/ G>B|"Am"c<A"G"d>B "C"e>d c<e|"G"d<
B
g>B "Am" A2 A||
